X:1
T:title
M:4/4
Q:120
L:1/8
R:Reel
K:C
 _f'3 ^E4 ^F |  _c'2 ^E3 ^B _E2 |  _c'3 ^c2D2f' |  ^B2 _g2 _A4 |  ^D _a'2a4 ^B |  ^c' ^D2 _e4d |  _B4E2 ^d'2 |  ^c'4 _g'b'3 | 